apps/scalable/gnome-sudoku.svg

<?xml version="1.0" standalone="no"?><!-- Generator: Gravit.io --><svg xmlns="http://www.w3.org/2000/svg" xmlns:xlink="http://www.w3.org/1999/xlink" style="isolation:isolate" viewBox="0 0 256 256" width="256" height="256"><defs><filter id="qr4iPnpBuKifKZKDlQeu91LtOUyntxbv" x="-200%" y="-200%" width="400%" height="400%" filterUnits="objectBoundingBox" color-interpolation-filters="sRGB"><feGaussianBlur xmlns="http://www.w3.org/2000/svg" in="SourceGraphic" stdDeviation="4.294"/><feOffset xmlns="http://www.w3.org/2000/svg" dx="0" dy="4" result="pf_100_offsetBlur"/><feFlood xmlns="http://www.w3.org/2000/svg" flood-color="#000000" flood-opacity="0.4"/><feComposite xmlns="http://www.w3.org/2000/svg" in2="pf_100_offsetBlur" operator="in" result="pf_100_dropShadow"/><feBlend xmlns="http://www.w3.org/2000/svg" in="SourceGraphic" in2="pf_100_dropShadow" mode="normal"/></filter></defs><g filter="url(#qr4iPnpBuKifKZKDlQeu91LtOUyntxbv)"><path d=" M 166.351 13.28 C 240.407 13.28 250.991 23.837 250.991 97.824 L 250.991 157.075 C 250.991 231.061 240.407 241.619 166.351 241.619 L 90.982 241.619 C 16.926 241.619 6.343 231.061 6.343 157.075 L 6.343 97.824 C 6.343 23.837 16.926 13.28 90.982 13.28 L 166.351 13.28 L 166.351 13.28 Z " id="Path" fill="rgb(227,223,213)"/></g><g opacity="0.4"><path d=" M 8.476 55.74 C 6.729 66.667 6.158 80.255 6.158 97.205 L 6.158 156.456 C 6.158 230.442 16.742 241 90.798 241 L 166.167 241 C 221.302 241 241.245 235.126 247.842 201.603 L 8.476 55.74 L 8.476 55.74 Z " id="Path" fill="rgb(255,255,255)"/></g><path d=" M 55.625 40.334 L 55.625 54.606 L 41.354 54.606 L 41.354 56.644 L 55.625 56.644 L 55.625 72.954 L 41.354 72.954 L 41.354 74.993 L 55.625 74.993 L 55.625 89.264 L 57.664 89.264 L 57.664 74.993 L 73.974 74.993 L 73.974 89.264 L 76.012 89.264 L 76.012 74.993 L 90.283 74.993 L 90.283 72.954 L 57.664 72.954 L 57.664 56.644 L 90.283 56.644 L 90.283 54.606 L 76.012 54.606 L 76.012 40.334 L 73.974 40.334 L 73.974 54.606 L 57.664 54.606 L 57.664 40.334 L 55.625 40.334 L 55.625 40.334 Z  M 118.826 40.334 L 118.826 54.606 L 104.555 54.606 L 104.555 56.644 L 118.826 56.644 L 118.826 72.954 L 104.555 72.954 L 104.555 74.993 L 118.826 74.993 L 118.826 89.264 L 120.864 89.264 L 120.864 74.993 L 137.174 74.993 L 137.174 89.264 L 139.213 89.264 L 139.213 74.993 L 153.484 74.993 L 153.484 72.954 L 139.213 72.954 L 139.213 56.644 L 153.484 56.644 L 153.484 54.606 L 139.213 54.606 L 139.213 40.334 L 137.174 40.334 L 137.174 54.606 L 120.864 54.606 L 120.864 40.334 L 118.826 40.334 L 118.826 40.334 Z  M 182.027 40.334 L 182.027 54.606 L 167.755 54.606 L 167.755 56.644 L 184.065 56.644 L 184.065 72.954 L 167.755 72.954 L 167.755 74.993 L 182.027 74.993 L 182.027 89.264 L 184.065 89.264 L 184.065 74.993 L 200.375 74.993 L 200.375 89.264 L 202.414 89.264 L 202.414 74.993 L 216.685 74.993 L 216.685 72.954 L 202.414 72.954 L 202.414 56.644 L 216.685 56.644 L 216.685 54.606 L 202.414 54.606 L 202.414 40.334 L 200.375 40.334 L 200.375 54.606 L 184.065 54.606 L 184.065 40.334 L 182.027 40.334 L 182.027 40.334 Z  M 73.974 56.644 L 76.012 56.644 L 76.012 72.954 L 73.974 72.954 L 73.974 56.644 L 73.974 56.644 Z  M 120.864 56.644 L 137.174 56.644 L 137.174 72.954 L 120.864 72.954 L 120.864 56.644 L 120.864 56.644 Z  M 182.027 56.644 L 200.375 56.644 L 200.375 72.954 L 182.027 72.954 L 182.027 56.644 L 182.027 56.644 Z  M 55.625 103.535 L 55.625 117.806 L 41.354 117.806 L 41.354 119.845 L 55.625 119.845 L 55.625 136.155 L 41.354 136.155 L 41.354 138.194 L 55.625 138.194 L 55.625 152.465 L 57.664 152.465 L 57.664 138.194 L 73.974 138.194 L 73.974 152.465 L 76.012 152.465 L 76.012 138.194 L 90.283 138.194 L 90.283 136.155 L 76.012 136.155 L 76.012 119.845 L 90.283 119.845 L 90.283 117.806 L 76.012 117.806 L 76.012 103.535 L 73.974 103.535 L 73.974 117.806 L 57.664 117.806 L 57.664 103.535 L 55.625 103.535 L 55.625 103.535 Z  M 118.826 103.535 L 118.826 117.806 L 104.555 117.806 L 104.555 119.845 L 118.826 119.845 L 118.826 136.155 L 104.555 136.155 L 104.555 138.194 L 118.826 138.194 L 118.826 152.465 L 120.864 152.465 L 120.864 138.194 L 137.174 138.194 L 137.174 152.465 L 139.213 152.465 L 139.213 138.194 L 153.484 138.194 L 153.484 136.155 L 139.213 136.155 L 139.213 119.845 L 153.484 119.845 L 153.484 117.806 L 139.213 117.806 L 139.213 103.535 L 137.174 103.535 L 137.174 117.806 L 120.864 117.806 L 120.864 103.535 L 118.826 103.535 L 118.826 103.535 Z  M 182.027 103.535 L 182.027 117.806 L 167.755 117.806 L 167.755 119.845 L 182.027 119.845 L 182.027 136.155 L 167.755 136.155 L 167.755 138.194 L 182.027 138.194 L 182.027 152.465 L 184.065 152.465 L 184.065 138.194 L 200.375 138.194 L 200.375 152.465 L 202.414 152.465 L 202.414 138.194 L 216.685 138.194 L 216.685 136.155 L 202.414 136.155 L 202.414 119.845 L 216.685 119.845 L 216.685 117.806 L 202.414 117.806 L 202.414 103.535 L 200.375 103.535 L 200.375 117.806 L 184.065 117.806 L 184.065 103.535 L 182.027 103.535 L 182.027 103.535 Z  M 57.664 119.845 L 73.974 119.845 L 73.974 136.155 L 57.664 136.155 L 57.664 119.845 L 57.664 119.845 Z  M 120.864 119.845 L 137.174 119.845 L 137.174 136.155 L 120.864 136.155 L 120.864 119.845 L 120.864 119.845 Z  M 184.065 119.845 L 200.375 119.845 L 200.375 136.155 L 184.065 136.155 L 184.065 119.845 L 184.065 119.845 Z  M 55.625 166.736 L 55.625 181.007 L 41.354 181.007 L 41.354 183.046 L 55.625 183.046 L 55.625 200.375 L 41.354 200.375 L 41.354 202.414 L 55.625 202.414 L 55.625 215.666 L 57.664 215.666 L 57.664 202.414 L 73.974 202.414 L 73.974 215.666 L 76.012 215.666 L 76.012 202.414 L 90.283 202.414 L 90.283 200.375 L 76.012 200.375 L 76.012 183.046 L 90.283 183.046 L 90.283 181.007 L 76.012 181.007 L 76.012 166.736 L 73.974 166.736 L 73.974 181.007 L 57.664 181.007 L 57.664 166.736 L 55.625 166.736 L 55.625 166.736 Z  M 118.826 166.736 L 118.826 181.007 L 104.555 181.007 L 104.555 183.046 L 118.826 183.046 L 118.826 200.375 L 104.555 200.375 L 104.555 202.414 L 118.826 202.414 L 118.826 215.666 L 120.864 215.666 L 120.864 202.414 L 137.174 202.414 L 137.174 215.666 L 139.213 215.666 L 139.213 202.414 L 153.484 202.414 L 153.484 200.375 L 139.213 200.375 L 139.213 183.046 L 153.484 183.046 L 153.484 181.007 L 139.213 181.007 L 139.213 166.736 L 137.174 166.736 L 137.174 181.007 L 120.864 181.007 L 120.864 166.736 L 118.826 166.736 L 118.826 166.736 Z  M 182.027 166.736 L 182.027 181.007 L 167.755 181.007 L 167.755 183.046 L 182.027 183.046 L 182.027 200.375 L 167.755 200.375 L 167.755 202.414 L 182.027 202.414 L 182.027 215.666 L 184.065 215.666 L 184.065 202.414 L 200.375 202.414 L 200.375 215.666 L 202.414 215.666 L 202.414 202.414 L 216.685 202.414 L 216.685 200.375 L 202.414 200.375 L 202.414 183.046 L 216.685 183.046 L 216.685 181.007 L 202.414 181.007 L 202.414 166.736 L 200.375 166.736 L 200.375 181.007 L 184.065 181.007 L 184.065 166.736 L 182.027 166.736 L 182.027 166.736 Z  M 57.664 183.046 L 73.974 183.046 L 73.974 200.375 L 57.664 200.375 L 57.664 183.046 L 57.664 183.046 Z  M 120.864 183.046 L 137.174 183.046 L 137.174 200.375 L 120.864 200.375 L 120.864 183.046 L 120.864 183.046 Z  M 184.065 183.046 L 200.375 183.046 L 200.375 200.375 L 184.065 200.375 L 184.065 183.046 L 184.065 183.046 Z " id="Compound Path" fill="rgb(174,167,149)"/><g opacity="0.5"><path d=" M 55.625 103.535 L 55.625 117.806 L 41.354 117.806 L 41.354 119.845 L 55.625 119.845 L 55.625 136.155 L 41.354 136.155 L 41.354 138.194 L 55.625 138.194 L 55.625 152.465 L 57.664 152.465 L 57.664 138.194 L 73.974 138.194 L 73.974 152.465 L 76.012 152.465 L 76.012 138.194 L 90.283 138.194 L 90.283 136.155 L 76.012 136.155 L 76.012 119.845 L 90.283 119.845 L 90.283 117.806 L 76.012 117.806 L 76.012 103.535 L 73.974 103.535 L 73.974 117.806 L 57.664 117.806 L 57.664 103.535 L 55.625 103.535 L 55.625 103.535 Z  M 57.664 119.845 L 73.974 119.845 L 73.974 136.155 L 57.664 136.155 L 57.664 119.845 L 57.664 119.845 Z " id="Compound Path" fill="rgb(0,0,0)"/></g><path d=" M 94.361 34.218 L 94.361 93.342 L 35.238 93.342 L 35.238 97.419 L 94.361 97.419 L 94.361 158.581 L 35.238 158.581 L 35.238 162.659 L 94.361 162.659 L 94.361 221.782 L 98.438 221.782 L 98.438 162.659 L 159.6 162.659 L 159.6 221.782 L 163.678 221.782 L 163.678 162.659 L 222.801 162.659 L 222.801 158.581 L 163.678 158.581 L 163.678 97.419 L 222.801 97.419 L 222.801 93.342 L 163.678 93.342 L 163.678 34.218 L 159.6 34.218 L 159.6 93.342 L 98.438 93.342 L 98.438 34.218 L 94.361 34.218 L 94.361 34.218 Z  M 98.438 97.419 L 159.6 97.419 L 159.6 158.581 L 98.438 158.581 L 98.438 97.419 L 98.438 97.419 Z " id="Compound Path" fill="rgb(132,125,108)"/><g opacity="0.4"><linearGradient id="_lgradient_165" x1="0.5166666666666668" y1="0" x2="0.5166666666666666" y2="1.0000000000000002" gradientTransform="matrix(244.65,0,0,228.34,5.68,11.95)" gradientUnits="userSpaceOnUse"><stop offset="0%" stop-opacity="1" style="stop-color:rgb(255,255,255)"/><stop offset="12.5%" stop-opacity="0.09803922" style="stop-color:rgb(255,255,255)"/><stop offset="92.500001%" stop-opacity="0.09803922" style="stop-color:rgb(0,0,0)"/><stop offset="100%" stop-opacity="0.49803922" style="stop-color:rgb(0,0,0)"/></linearGradient><path d=" M 165.06803 11.951234 C 169.395994 11.941409 173.723944 11.990533 178.051908 12.088781 C 181.927398 12.167379 185.802873 12.31475 189.678362 12.540721 C 193.1309 12.737216 196.583423 13.022134 200.026115 13.395476 C 203.085193 13.729518 206.144271 14.181458 209.173842 14.741469 C 211.888645 15.242533 214.57394 15.881143 217.219897 16.6573 C 219.619947 17.354858 221.970814 18.219439 224.242988 19.241215 C 226.357793 20.184394 228.384061 21.304417 230.302129 22.591462 C 232.141505 23.829383 233.862851 25.244151 235.436659 26.80629 C 237.000621 28.378252 238.417046 30.087764 239.656409 31.924995 C 240.944972 33.840824 242.066305 35.864728 243.020409 37.967229 C 244.043389 40.246576 244.908985 42.584873 245.617197 44.972292 C 246.394255 47.615155 247.033606 50.297317 247.535265 53.008956 C 248.095924 56.034984 248.548399 59.080665 248.882828 62.13617 C 249.256611 65.574836 249.541856 69.013506 249.738578 72.462003 C 249.964823 76.323139 250.112361 80.194101 250.200884 84.055237 C 250.289421 88.378131 250.338591 92.701032 250.32876 97.014106 L 250.32876 155.225886 C 250.338591 159.54878 250.289421 163.861854 250.200884 168.184747 C 250.112361 172.05571 249.964823 175.916853 249.738578 179.777981 C 249.541856 183.226485 249.256611 186.674975 248.882828 190.103826 C 248.548399 193.15933 248.095924 196.214835 247.535265 199.240851 C 247.033606 201.942664 246.394255 204.624837 245.617197 207.267703 C 244.908985 209.655115 244.043389 212.003235 243.020409 214.272755 C 242.066305 216.38509 240.944972 218.399156 239.656409 220.314999 C 238.417046 222.152226 237.000621 223.871561 235.436659 225.433697 C 233.862851 226.995832 232.141505 228.410601 230.302129 229.648532 C 228.384061 230.935575 226.357793 232.055598 224.242988 232.998768 C 221.970814 234.020552 219.619947 234.885137 217.219897 235.592507 C 214.57394 236.368672 211.888645 237.007276 209.173842 237.498515 C 206.144271 238.068354 203.085193 238.510465 200.026115 238.844519 C 196.583423 239.21785 193.1309 239.502777 189.678362 239.699269 C 185.802873 239.925235 181.927398 240.072615 178.051908 240.161035 C 173.723944 240.249454 169.395994 240.298581 165.06803 240.288762 L 90.941963 240.288762 C 86.614006 240.298581 82.286049 240.249454 77.9581 240.161035 C 74.08261 240.072615 70.20712 239.925235 66.331638 239.699269 C 62.879108 239.502777 59.426578 239.21785 55.983886 238.844519 C 52.924808 238.510465 49.865733 238.068354 46.836162 237.498515 C 44.121356 237.007276 41.436057 236.368672 38.7901 235.592507 C 36.390053 234.885137 34.039187 234.020552 31.767009 232.998768 C 29.652213 232.055598 27.625943 230.935575 25.707871 229.648532 C 23.868489 228.410601 22.147143 226.995832 20.573343 225.433697 C 19.009377 223.871561 17.592955 222.152226 16.353586 220.314999 C 15.065036 218.399156 13.943701 216.38509 12.989584 214.272755 C 11.966612 212.003235 11.101021 209.655115 10.392811 207.267703 C 9.615746 204.624837 8.976389 201.942664 8.47474 199.240851 C 7.914072 196.214835 7.461604 193.15933 7.127172 190.103826 C 6.753394 186.674975 6.468142 183.226485 6.271417 179.777981 C 6.045183 175.916853 5.897639 172.05571 5.809112 168.184747 C 5.720586 163.861854 5.671405 159.54878 5.681241 155.225886 L 5.681241 97.014106 C 5.671405 92.701032 5.720586 88.378131 5.809112 84.055237 C 5.897639 80.194101 6.045183 76.323139 6.271417 72.462003 C 6.468142 69.013506 6.753394 65.574836 7.127172 62.13617 C 7.461604 59.080665 7.914072 56.034984 8.47474 53.008956 C 8.976389 50.297317 9.615746 47.615155 10.392811 44.972292 C 11.101021 42.584873 11.966612 40.246576 12.989584 37.967229 C 13.943701 35.864728 15.065036 33.840824 16.353586 31.924995 C 17.592955 30.087764 19.009377 28.378252 20.573343 26.80629 C 22.147143 25.244151 23.868489 23.829383 25.707871 22.591462 C 27.625943 21.304417 29.652213 20.184394 31.767009 19.241215 C 34.039187 18.219439 36.390053 17.354858 38.7901 16.6573 C 41.436057 15.881143 44.121356 15.242533 46.836162 14.741469 C 49.865733 14.181458 52.924808 13.729518 55.983886 13.395476 C 59.426578 13.022134 62.879108 12.737216 66.331638 12.540721 C 70.20712 12.31475 74.08261 12.167379 77.9581 12.088781 C 82.286049 11.990533 86.614006 11.941409 90.941963 11.951234 L 165.06803 11.951234 Z  M 165.077876 15.959741 C 169.376317 15.949916 173.674759 15.99904 177.973216 16.087463 C 181.799522 16.175886 185.625827 16.323257 189.452133 16.539402 C 192.835809 16.735898 196.219486 17.010992 199.583486 17.384332 C 202.554026 17.698726 205.514751 18.131016 208.445953 18.681203 C 211.023049 19.152792 213.580483 19.761928 216.098564 20.498786 C 218.321569 21.147221 220.495374 21.952852 222.600334 22.896029 C 224.508571 23.750785 226.338116 24.762737 228.069293 25.922059 C 229.692286 27.012609 231.207063 28.260355 232.59398 29.645648 C 233.980897 31.030941 235.230091 32.543956 236.331763 34.165043 C 237.492434 35.894202 238.505568 37.711787 239.361333 39.607968 C 240.305606 41.720292 241.112187 43.891565 241.761369 46.102139 C 242.508934 48.617282 243.108947 51.161898 243.590914 53.735987 C 244.131912 56.663768 244.564709 59.6112 244.889308 62.578282 C 245.263091 65.938355 245.538505 69.308252 245.735227 72.687976 C 245.951626 76.509812 246.10901 80.321821 246.187687 84.143656 C 246.276225 88.437084 246.325394 92.720685 246.325394 97.014106 C 246.325394 97.014106 246.325394 97.014106 246.325394 97.014106 L 246.325394 155.225886 C 246.325394 155.225886 246.325394 155.225886 246.325394 155.225886 C 246.325394 159.519306 246.276225 163.802907 246.187687 168.096328 C 246.10901 171.918164 245.951626 175.739999 245.735227 179.552015 C 245.538505 182.931739 245.263091 186.301629 244.889308 189.671533 C 244.564709 192.628784 244.131912 195.576216 243.590914 198.503994 C 243.108947 201.078094 242.508934 203.622706 241.761369 206.137845 C 241.112187 208.358253 240.305606 210.5197 239.361333 212.63202 C 238.505568 214.528209 237.492434 216.355617 236.331763 218.074952 C 235.230091 219.705853 233.980897 221.218876 232.59398 222.604172 C 231.207063 223.979634 229.692286 225.227385 228.069293 226.317935 C 226.338116 227.477251 224.508571 228.489201 222.600334 229.343951 C 220.495374 230.296956 218.321569 231.092775 216.098564 231.741198 C 213.580483 232.478056 211.023049 233.087202 208.445953 233.558787 C 205.514751 234.108972 202.554026 234.541264 199.583486 234.865483 C 196.219486 235.228995 192.835809 235.513922 189.452133 235.70058 C 185.625827 235.916726 181.799522 236.073926 177.973216 236.152526 C 173.674759 236.25078 169.376317 236.290072 165.077876 236.290072 C 165.077876 236.290072 165.077876 236.290072 165.06803 236.290072 L 90.941963 236.290072 C 90.932125 236.290072 90.932125 236.290072 90.932125 236.290072 C 86.633683 236.290072 82.335234 236.25078 78.036784 236.152526 C 74.210479 236.073926 70.384173 235.916726 66.557868 235.70058 C 63.174195 235.513922 59.790522 235.228995 56.426518 234.865483 C 53.455967 234.541264 50.495253 234.108972 47.564048 233.558787 C 44.986944 233.087202 42.429517 232.478056 39.911433 231.741198 C 37.688439 231.092775 35.514626 230.296956 33.409665 229.343951 C 31.501429 228.489201 29.671886 227.477251 27.940703 226.317935 C 26.31772 225.227385 24.802935 223.979634 23.416022 222.604172 C 22.029109 221.218876 20.779904 219.705853 19.678243 218.074952 C 18.517564 216.355617 17.504428 214.528209 16.648674 212.63202 C 15.704392 210.5197 14.897819 208.358253 14.248626 206.137845 C 13.50107 203.622706 12.901057 201.078094 12.419081 198.503994 C 11.878086 195.576216 11.445291 192.628784 11.120694 189.671533 C 10.746916 186.301629 10.471501 182.931739 10.274776 179.552015 C 10.058378 175.739999 9.900997 171.918164 9.822307 168.096328 C 9.733781 163.802907 9.6846 159.519306 9.6846 155.225886 C 9.6846 155.225886 9.6846 155.225886 9.6846 155.225886 L 9.6846 97.014106 C 9.6846 97.014106 9.6846 97.014106 9.6846 97.014106 C 9.6846 92.720685 9.733781 88.437084 9.822307 84.143656 C 9.900997 80.321821 10.058378 76.509812 10.274776 72.687976 C 10.471501 69.308252 10.746916 65.938355 11.120694 62.578282 C 11.445291 59.6112 11.878086 56.663768 12.419081 53.735987 C 12.901057 51.161898 13.50107 48.617282 14.248626 46.102139 C 14.897819 43.891565 15.704392 41.720292 16.648674 39.607968 C 17.504428 37.711787 18.517564 35.894202 19.678243 34.165043 C 20.779904 32.543956 22.029109 31.030941 23.416022 29.645648 C 24.802935 28.260355 26.31772 27.012609 27.940703 25.922059 C 29.671886 24.762737 31.501429 23.750785 33.409665 22.896029 C 35.514626 21.952852 37.688439 21.147221 39.911433 20.498786 C 42.429517 19.761928 44.986944 19.152792 47.564048 18.681203 C 50.495253 18.131016 53.455967 17.698726 56.426518 17.384332 C 59.790522 17.010992 63.174195 16.735898 66.557868 16.539402 C 70.384173 16.323257 74.210479 16.175886 78.036784 16.087463 C 82.335234 15.99904 86.633683 15.949916 90.932125 15.959741 C 90.932125 15.959741 90.932125 15.959741 90.941963 15.959741 L 165.06803 15.959741 C 165.077876 15.959741 165.077876 15.959741 165.077876 15.959741 Z " fill-rule="evenodd" id="highlight" fill="url(#_lgradient_165)"/></g></svg>

<svg xmlns="http://www.w3.org/2000/svg" style="isolation:isolate" width="256" height="256"><defs><filter id="a" x="-200%" y="-200%" width="400%" height="400%" filterUnits="objectBoundingBox" color-interpolation-filters="sRGB"><feGaussianBlur xmlns="http://www.w3.org/2000/svg" in="SourceGraphic" stdDeviation="4.294"/><feOffset xmlns="http://www.w3.org/2000/svg" dy="4" result="pf_100_offsetBlur"/><feFlood xmlns="http://www.w3.org/2000/svg" flood-color="#000" flood-opacity=".4"/><feComposite xmlns="http://www.w3.org/2000/svg" in2="pf_100_offsetBlur" operator="in" result="pf_100_dropShadow"/><feBlend xmlns="http://www.w3.org/2000/svg" in="SourceGraphic" in2="pf_100_dropShadow"/></filter></defs><path d="M166.351 13.28c74.056 0 84.64 10.557 84.64 84.544v59.251c0 73.986-10.584 84.544-84.64 84.544H90.982c-74.056 0-84.639-10.558-84.639-84.544V97.824c0-73.987 10.583-84.544 84.639-84.544h75.369z" fill="#E3DFD5" filter="url(#a)"/><path d="M8.476 55.74C6.729 66.667 6.158 80.255 6.158 97.205v59.251c0 73.986 10.584 84.544 84.64 84.544h75.369c55.135 0 75.078-5.874 81.675-39.397L8.476 55.74z" fill="#FFF" opacity=".05"/><path d="M55.625 40.334v14.272H41.354v2.038h14.271v16.31H41.354v2.039h14.271v14.271h2.039V74.993h16.31v14.271h2.038V74.993h14.271v-2.039H57.664v-16.31h32.619v-2.038H76.012V40.334h-2.038v14.272h-16.31V40.334h-2.039zm63.201 0v14.272h-14.271v2.038h14.271v16.31h-14.271v2.039h14.271v14.271h2.038V74.993h16.31v14.271h2.039V74.993h14.271v-2.039h-14.271v-16.31h14.271v-2.038h-14.271V40.334h-2.039v14.272h-16.31V40.334h-2.038zm63.201 0v14.272h-14.272v2.038h16.31v16.31h-16.31v2.039h14.272v14.271h2.038V74.993h16.31v14.271h2.039V74.993h14.271v-2.039h-14.271v-16.31h14.271v-2.038h-14.271V40.334h-2.039v14.272h-16.31V40.334h-2.038zM73.974 56.644h2.038v16.31h-2.038v-16.31zm46.89 0h16.31v16.31h-16.31v-16.31zm61.163 0h18.348v16.31h-18.348v-16.31zM55.625 103.535v14.271H41.354v2.039h14.271v16.31H41.354v2.039h14.271v14.271h2.039v-14.271h16.31v14.271h2.038v-14.271h14.271v-2.039H76.012v-16.31h14.271v-2.039H76.012v-14.271h-2.038v14.271h-16.31v-14.271h-2.039zm63.201 0v14.271h-14.271v2.039h14.271v16.31h-14.271v2.039h14.271v14.271h2.038v-14.271h16.31v14.271h2.039v-14.271h14.271v-2.039h-14.271v-16.31h14.271v-2.039h-14.271v-14.271h-2.039v14.271h-16.31v-14.271h-2.038zm63.201 0v14.271h-14.272v2.039h14.272v16.31h-14.272v2.039h14.272v14.271h2.038v-14.271h16.31v14.271h2.039v-14.271h14.271v-2.039h-14.271v-16.31h14.271v-2.039h-14.271v-14.271h-2.039v14.271h-16.31v-14.271h-2.038zm-124.363 16.31h16.31v16.31h-16.31v-16.31zm63.2 0h16.31v16.31h-16.31v-16.31zm63.201 0h16.31v16.31h-16.31v-16.31zm-128.44 46.891v14.271H41.354v2.039h14.271v17.329H41.354v2.039h14.271v13.252h2.039v-13.252h16.31v13.252h2.038v-13.252h14.271v-2.039H76.012v-17.329h14.271v-2.039H76.012v-14.271h-2.038v14.271h-16.31v-14.271h-2.039zm63.201 0v14.271h-14.271v2.039h14.271v17.329h-14.271v2.039h14.271v13.252h2.038v-13.252h16.31v13.252h2.039v-13.252h14.271v-2.039h-14.271v-17.329h14.271v-2.039h-14.271v-14.271h-2.039v14.271h-16.31v-14.271h-2.038zm63.201 0v14.271h-14.272v2.039h14.272v17.329h-14.272v2.039h14.272v13.252h2.038v-13.252h16.31v13.252h2.039v-13.252h14.271v-2.039h-14.271v-17.329h14.271v-2.039h-14.271v-14.271h-2.039v14.271h-16.31v-14.271h-2.038zm-124.363 16.31h16.31v17.329h-16.31v-17.329zm63.2 0h16.31v17.329h-16.31v-17.329zm63.201 0h16.31v17.329h-16.31v-17.329z" fill="#AEA795"/><path d="M55.625 103.535v14.271H41.354v2.039h14.271v16.31H41.354v2.039h14.271v14.271h2.039v-14.271h16.31v14.271h2.038v-14.271h14.271v-2.039H76.012v-16.31h14.271v-2.039H76.012v-14.271h-2.038v14.271h-16.31v-14.271h-2.039zm2.039 16.31h16.31v16.31h-16.31v-16.31z" opacity=".5"/><path d="M94.361 34.218v59.124H35.238v4.077h59.123v61.162H35.238v4.078h59.123v59.123h4.077v-59.123H159.6v59.123h4.078v-59.123h59.123v-4.078h-59.123V97.419h59.123v-4.077h-59.123V34.218H159.6v59.124H98.438V34.218h-4.077zm4.077 63.201H159.6v61.162H98.438V97.419z" fill="#847D6C"/></svg>
